Adwaita++-Dark/actions/22/trash-empty.svg

<svg height="22" viewBox="0 0 22 22" width="22" xmlns="http://www.w3.org/2000/svg">
  <path d="m6 .9921875c-1 0-1 1-1 1h-3s-1 .0035063-1 1.0039063v1l13-.0039063v-.9960937c0-1-1-1.0039063-1-1.0039063h-3s0-1-1-1zm-4 4.0039063v9.0000002c.00005.52358.47642.99995 1 1h9c.52358-.00005.99995-.47642 1-1v-9.0000002z" fill="#e6ddff" transform="translate(3 3)"/>
</svg>

<svg xmlns="http://www.w3.org/2000/svg" width="22" height="22" viewBox="0 0 22 22">
 <defs>
  <style id="current-color-scheme" type="text/css">
   .ColorScheme-Text { color:#E6DDFF; } .ColorScheme-Highlight { color:#4285f4; }
  </style>
 </defs>
 <path style="fill:currentColor" class="ColorScheme-Text" d="M 6 0.9921875 C 5 0.9921875 5 1.9921875 5 1.9921875 L 2 1.9921875 C 2 1.9921875 1 1.9956938 1 2.9960938 L 1 3.9960938 L 14 3.9921875 L 14 2.9960938 C 14 1.9960938 13 1.9921875 13 1.9921875 L 10 1.9921875 C 10 1.9921875 10 0.9921875 9 0.9921875 L 6 0.9921875 z M 2 4.9960938 L 2 13.996094 C 2.00005 14.519674 2.47642 14.996044 3 14.996094 L 12 14.996094 C 12.52358 14.996044 12.99995 14.519674 13 13.996094 L 13 4.9960938 L 2 4.9960938 z" transform="translate(3 3)"/>
</svg>
